flaticon/delivery/trolley-1.svg

<svg xmlns="http://www.w3.org/2000/svg" width="32" height="32" viewBox="0 0 24 24">
    <path d="M 23.160156 15.402344 L 20.398438 15.402344 L 20.398438 9.003906 C 20.398438 8.5625 20.039062 8.203125 19.601562 8.203125 L 16.800781 8.203125 L 16.800781 1.800781 C 16.800781 1.363281 16.441406 1.003906 16 1.003906 L 9.601562 1.003906 C 9.160156 1.003906 8.800781 1.363281 8.800781 1.800781 L 8.800781 8.203125 L 6 8.203125 C 5.558594 8.203125 5.199219 8.5625 5.199219 9.003906 L 5.199219 15.402344 L 4.398438 15.402344 L 4.398438 5.363281 C 4.398438 4.601562 4.160156 3.84375 3.71875 3.242188 L 2.320312 1.121094 C 2 0.601562 1.28125 0.441406 0.761719 0.761719 C 0.238281 1.121094 0.121094 1.800781 0.441406 2.324219 L 1.519531 4.082031 C 1.839844 4.601562 2 5.164062 2 5.722656 L 2 15.402344 L 0.839844 15.402344 C 0.359375 15.402344 0 15.800781 0 16.242188 L 0 20.5625 C 0 21.042969 0.359375 21.402344 0.839844 21.402344 L 2.035156 21.402344 C 2.226562 22.535156 3.214844 23.402344 4.398438 23.402344 C 5.582031 23.402344 6.574219 22.535156 6.765625 21.402344 L 17.234375 21.402344 C 17.425781 22.535156 18.417969 23.402344 19.601562 23.402344 C 20.785156 23.402344 21.773438 22.535156 21.964844 21.402344 L 23.160156 21.402344 C 23.640625 21.402344 24 21.042969 24 20.5625 L 24 16.242188 C 24 15.761719 23.601562 15.402344 23.160156 15.402344 Z M 19.601562 15.402344 L 13.199219 15.402344 L 13.199219 9.003906 L 14.800781 9.003906 L 14.800781 11.003906 C 14.800781 11.242188 14.960938 11.402344 15.199219 11.402344 L 17.601562 11.402344 C 17.839844 11.402344 18 11.242188 18 11.003906 L 18 9.003906 L 19.601562 9.003906 Z M 17.199219 10.601562 L 15.601562 10.601562 L 15.601562 9.003906 L 17.199219 9.003906 Z M 13.601562 1.800781 L 13.601562 3.402344 L 12 3.402344 L 12 1.800781 Z M 9.601562 1.800781 L 11.199219 1.800781 L 11.199219 3.800781 C 11.199219 4.042969 11.359375 4.203125 11.601562 4.203125 L 14 4.203125 C 14.238281 4.203125 14.398438 4.042969 14.398438 3.800781 L 14.398438 1.800781 L 16 1.800781 L 16 8.203125 L 9.601562 8.203125 Z M 9.199219 9.003906 L 10 9.003906 L 10 10.601562 L 8.398438 10.601562 L 8.398438 9.003906 Z M 6 9.003906 L 7.601562 9.003906 L 7.601562 11.003906 C 7.601562 11.242188 7.761719 11.402344 8 11.402344 L 10.398438 11.402344 C 10.640625 11.402344 10.800781 11.242188 10.800781 11.003906 L 10.800781 9.003906 L 12.398438 9.003906 L 12.398438 15.402344 L 6 15.402344 Z M 2.199219 3.683594 L 1.121094 1.921875 C 1 1.761719 1.078125 1.5625 1.199219 1.441406 C 1.359375 1.363281 1.558594 1.402344 1.679688 1.5625 L 3.078125 3.683594 C 3.441406 4.164062 3.601562 4.761719 3.601562 5.363281 L 3.601562 15.402344 L 2.800781 15.402344 L 2.800781 5.722656 C 2.800781 5.003906 2.601562 4.28125 2.199219 3.683594 Z M 0.800781 16.242188 C 0.800781 16.203125 0.800781 16.203125 0.839844 16.203125 L 23.160156 16.203125 C 23.199219 16.203125 23.199219 16.242188 23.199219 16.242188 L 23.199219 17.003906 L 0.800781 17.003906 Z M 4.398438 22.601562 C 3.519531 22.601562 2.800781 21.882812 2.800781 21.003906 C 2.800781 20.121094 3.519531 19.402344 4.398438 19.402344 C 5.28125 19.402344 6 20.121094 6 21.003906 C 6 21.882812 5.28125 22.601562 4.398438 22.601562 Z M 19.601562 22.601562 C 18.71875 22.601562 18 21.882812 18 21.003906 C 18 20.121094 18.71875 19.402344 19.601562 19.402344 C 20.480469 19.402344 21.199219 20.121094 21.199219 21.003906 C 21.199219 21.882812 20.480469 22.601562 19.601562 22.601562 Z M 23.199219 20.5625 C 23.199219 20.601562 23.160156 20.601562 23.160156 20.601562 L 21.964844 20.601562 C 21.832031 19.804688 21.300781 19.140625 20.585938 18.816406 C 20.570312 18.808594 20.554688 18.800781 20.539062 18.792969 C 20.527344 18.789062 20.519531 18.785156 20.507812 18.78125 C 20.480469 18.769531 20.457031 18.761719 20.429688 18.75 C 20.421875 18.75 20.414062 18.746094 20.40625 18.742188 C 20.378906 18.734375 20.347656 18.722656 20.320312 18.714844 C 20.3125 18.710938 20.304688 18.710938 20.300781 18.707031 C 20.269531 18.699219 20.238281 18.6875 20.207031 18.679688 C 20.199219 18.679688 20.195312 18.675781 20.1875 18.675781 C 20.15625 18.667969 20.125 18.660156 20.09375 18.65625 C 20.085938 18.652344 20.078125 18.652344 20.070312 18.648438 C 20.042969 18.644531 20.011719 18.636719 19.980469 18.632812 C 19.972656 18.632812 19.964844 18.628906 19.953125 18.628906 C 19.925781 18.625 19.894531 18.621094 19.867188 18.617188 C 19.855469 18.617188 19.847656 18.617188 19.835938 18.613281 C 19.808594 18.613281 19.777344 18.609375 19.746094 18.605469 C 19.738281 18.605469 19.726562 18.605469 19.71875 18.605469 C 19.679688 18.601562 19.640625 18.601562 19.601562 18.601562 C 19.558594 18.601562 19.519531 18.601562 19.480469 18.605469 C 19.472656 18.605469 19.460938 18.605469 19.453125 18.605469 C 19.421875 18.609375 19.390625 18.613281 19.363281 18.613281 C 19.351562 18.617188 19.34375 18.617188 19.332031 18.617188 C 19.304688 18.621094 19.273438 18.625 19.246094 18.628906 C 19.234375 18.628906 19.226562 18.632812 19.21875 18.632812 C 19.1875 18.636719 19.15625 18.644531 19.128906 18.648438 C 19.121094 18.652344 19.113281 18.652344 19.105469 18.65625 C 19.074219 18.660156 19.042969 18.667969 19.011719 18.675781 C 19.007812 18.675781 19 18.679688 18.992188 18.679688 C 18.960938 18.6875 18.929688 18.699219 18.898438 18.707031 C 18.894531 18.710938 18.886719 18.710938 18.882812 18.714844 C 18.851562 18.722656 18.820312 18.734375 18.792969 18.742188 C 18.785156 18.746094 18.777344 18.75 18.769531 18.75 C 18.746094 18.761719 18.71875 18.769531 18.691406 18.78125 C 18.683594 18.785156 18.671875 18.789062 18.660156 18.792969 C 18.644531 18.800781 18.628906 18.808594 18.613281 18.816406 C 17.898438 19.140625 17.367188 19.804688 17.234375 20.601562 L 6.765625 20.601562 C 6.628906 19.804688 6.101562 19.140625 5.386719 18.816406 C 5.371094 18.808594 5.355469 18.800781 5.339844 18.792969 C 5.328125 18.789062 5.316406 18.785156 5.308594 18.78125 C 5.28125 18.769531 5.253906 18.761719 5.230469 18.75 C 5.222656 18.75 5.214844 18.746094 5.207031 18.742188 C 5.179688 18.734375 5.148438 18.722656 5.117188 18.714844 C 5.113281 18.710938 5.105469 18.710938 5.097656 18.707031 C 5.070312 18.699219 5.039062 18.6875 5.007812 18.679688 C 5 18.679688 4.992188 18.675781 4.988281 18.675781 C 4.957031 18.667969 4.925781 18.660156 4.894531 18.65625 C 4.886719 18.652344 4.878906 18.652344 4.871094 18.648438 C 4.84375 18.644531 4.8125 18.636719 4.78125 18.632812 C 4.773438 18.632812 4.765625 18.628906 4.753906 18.628906 C 4.726562 18.625 4.695312 18.621094 4.667969 18.617188 C 4.65625 18.617188 4.648438 18.617188 4.636719 18.613281 C 4.609375 18.613281 4.578125 18.609375 4.546875 18.609375 C 4.539062 18.605469 4.527344 18.605469 4.519531 18.605469 C 4.480469 18.605469 4.441406 18.601562 4.398438 18.601562 C 4.359375 18.601562 4.320312 18.605469 4.28125 18.605469 C 4.273438 18.605469 4.261719 18.605469 4.253906 18.609375 C 4.222656 18.609375 4.191406 18.613281 4.164062 18.613281 C 4.152344 18.617188 4.144531 18.617188 4.132812 18.617188 C 4.105469 18.621094 4.074219 18.625 4.046875 18.628906 C 4.035156 18.628906 4.027344 18.632812 4.019531 18.632812 C 3.988281 18.636719 3.957031 18.644531 3.929688 18.648438 C 3.921875 18.652344 3.914062 18.652344 3.90625 18.65625 C 3.875 18.660156 3.84375 18.667969 3.8125 18.675781 C 3.804688 18.675781 3.800781 18.679688 3.792969 18.679688 C 3.761719 18.6875 3.730469 18.699219 3.699219 18.707031 C 3.695312 18.710938 3.6875 18.710938 3.679688 18.714844 C 3.652344 18.722656 3.621094 18.734375 3.59375 18.742188 C 3.585938 18.746094 3.578125 18.75 3.570312 18.75 C 3.542969 18.761719 3.519531 18.773438 3.492188 18.78125 C 3.480469 18.785156 3.472656 18.789062 3.460938 18.792969 C 3.445312 18.800781 3.429688 18.808594 3.414062 18.816406 C 2.699219 19.140625 2.167969 19.804688 2.035156 20.601562 L 0.839844 20.601562 C 0.800781 20.601562 0.800781 20.601562 0.800781 20.5625 L 0.800781 17.800781 L 23.199219 17.800781 Z M 23.199219 20.5625"/>
</svg>

<svg xmlns="http://www.w3.org/2000/svg" width="32" height="32" viewBox="0 0 24 24">
    <path d="M23.16 15.402h-2.762V9.004c0-.441-.359-.8-.796-.8H16.8V1.8A.801.801 0 0 0 16 1.004H9.602c-.442 0-.801.36-.801.797v6.402H6c-.441 0-.8.36-.8.8v6.4h-.802V5.362c0-.761-.238-1.52-.68-2.12L2.32 1.12C2 .601 1.281.441.762.761c-.524.36-.64 1.04-.32 1.563L1.52 4.082c.32.52.48 1.082.48 1.64v9.68H.84c-.48 0-.84.399-.84.84v4.32c0 .481.36.84.84.84h1.195c.192 1.133 1.18 2 2.363 2a2.408 2.408 0 0 0 2.368-2h10.468a2.408 2.408 0 0 0 2.368 2 2.404 2.404 0 0 0 2.363-2h1.195c.48 0 .84-.359.84-.84v-4.32c0-.48-.398-.84-.84-.84zm-3.558 0h-6.403V9.004h1.602v2c0 .238.16.398.398.398h2.403c.238 0 .398-.16.398-.398v-2h1.602zm-2.403-4.8h-1.597V9.004h1.597zM13.602 1.8v1.601H12V1.801zm-4 0h1.597v2c0 .242.16.402.403.402H14c.238 0 .398-.16.398-.402v-2H16v6.402H9.602zm-.403 7.203H10v1.598H8.398V9.004zM6 9.004h1.602v2c0 .238.16.398.398.398h2.398c.243 0 .403-.16.403-.398v-2h1.597v6.398H6zm-3.8-5.32L1.12 1.922c-.121-.16-.043-.36.078-.48.16-.079.36-.04.48.12l1.4 2.122c.362.48.523 1.078.523 1.68v10.038H2.8v-9.68c0-.718-.2-1.44-.602-2.038zM.8 16.242c0-.039 0-.039.04-.039h22.32c.04 0 .04.04.04.04v.76H.8zm3.598 6.36a1.602 1.602 0 0 1-1.597-1.598c0-.883.719-1.602 1.597-1.602.883 0 1.602.72 1.602 1.602 0 .879-.719 1.598-1.602 1.598zm15.204 0A1.603 1.603 0 0 1 18 21.004c0-.883.719-1.602 1.602-1.602.878 0 1.597.72 1.597 1.602 0 .879-.719 1.598-1.597 1.598zm3.597-2.04c0 .04-.039.04-.039.04h-1.195a2.403 2.403 0 0 0-1.38-1.786l-.046-.023-.031-.012-.078-.031a.056.056 0 0 1-.024-.008c-.027-.008-.058-.02-.086-.027-.008-.004-.015-.004-.02-.008-.03-.008-.062-.02-.093-.027-.008 0-.012-.004-.02-.004-.03-.008-.062-.016-.093-.02-.008-.004-.016-.004-.024-.008-.027-.003-.058-.011-.09-.015-.007 0-.015-.004-.027-.004l-.086-.012c-.012 0-.02 0-.031-.004-.027 0-.059-.004-.09-.008h-.027c-.04-.003-.078-.003-.117-.003-.043 0-.082 0-.122.003h-.027a.763.763 0 0 1-.09.008c-.011.004-.02.004-.031.004l-.086.012c-.012 0-.02.004-.027.004-.032.004-.063.012-.09.015-.008.004-.016.004-.024.008-.03.004-.062.012-.093.02-.004 0-.012.004-.02.004-.031.008-.062.02-.094.027-.003.004-.011.004-.015.008-.031.008-.063.02-.09.027-.008.004-.016.008-.023.008-.024.012-.051.02-.079.031-.007.004-.02.008-.03.012l-.048.023a2.403 2.403 0 0 0-1.379 1.786H6.766a2.412 2.412 0 0 0-1.38-1.786l-.046-.023c-.012-.004-.024-.008-.031-.012-.028-.011-.055-.02-.079-.031-.007 0-.015-.004-.023-.008-.027-.008-.059-.02-.09-.027-.004-.004-.012-.004-.02-.008-.027-.008-.058-.02-.09-.027-.007 0-.015-.004-.019-.004-.031-.008-.062-.016-.093-.02-.008-.004-.016-.004-.024-.008-.027-.003-.059-.011-.09-.015-.008 0-.015-.004-.027-.004l-.086-.012c-.012 0-.02 0-.031-.004-.028 0-.059-.004-.09-.004-.008-.004-.02-.004-.027-.004-.04 0-.079-.003-.122-.003l-.117.003c-.008 0-.02 0-.027.004-.031 0-.063.004-.09.004-.012.004-.02.004-.031.004l-.086.012c-.012 0-.02.004-.027.004-.032.004-.063.012-.09.015-.008.004-.016.004-.024.008-.031.004-.062.012-.094.02-.007 0-.011.004-.019.004-.031.008-.063.02-.094.027-.004.004-.011.004-.02.008-.027.008-.058.02-.085.027a.056.056 0 0 1-.024.008c-.027.012-.05.023-.078.031l-.031.012-.047.023a2.403 2.403 0 0 0-1.379 1.786H.84c-.04 0-.04 0-.04-.04v-2.761h22.4zm0 0"/>
</svg>
